static/img/icons-concept-new.svg

<svg width="240" height="240" xmlns="http://www.w3.org/2000/svg"><g fill="none" fill-rule="evenodd"><path fill="#FFF" d="M0 0h240v240H0z"/><g stroke="#DFDFDF"><path d="M39.5 39.5h160v160h-160z"/><g stroke-linecap="square"><path d="M49.5 39.5v160M59.5 39.5v160M69.5 39.5v160M79.5 39.5v160M89.5 39.5v160M99.5 39.5v160M109.5 39.5v160M119.5 39.5v160M129.5 39.5v160M139.5 39.5v160M149.5 39.5v160M159.5 39.5v160M169.5 39.5v160M179.5 39.5v160M189.5 39.5v160M199.5 49.5h-160M199.5 59.5h-160M199.5 69.5h-160M199.5 79.5h-160M199.5 89.5h-160M199.5 99.5h-160M199.5 109.5h-160M199.5 119.5h-160M199.5 129.5h-160M199.5 139.5h-160M199.5 149.5h-160M199.5 159.5h-160M199.5 169.5h-160M199.5 179.5h-160M199.5 189.5h-160"/></g></g><g transform="translate(201 19)"><circle fill="#17AA55" cx="10" cy="10" r="10"/><path stroke="#FFF" stroke-width="2" stroke-linecap="round" d="M6 10.069l2.98 2.98L15.03 7"/></g><path d="M59.5 169.5v20h120v-20h-50v-10H177c12.42 0 22.5-10.605 22.5-23.7V83.2c0-13.095-10.08-23.7-22.5-23.7H62c-12.42 0-22.5 10.605-22.5 23.7v52.6c0 13.095 10.08 23.7 22.5 23.7h47.5v10h-50zm0-90h120v60h-120v-60zm79.594 30L109.5 89.93v39.14l29.594-19.57z" stroke="#6E49CB" fill-opacity=".3" fill="#6E49CB"/></g></svg>

<svg width="240" height="240" viewBox="0 0 240 240" fill="none" xmlns="http://www.w3.org/2000/svg"><path fill="#fff" d="M0 0h240v240H0z"/><path stroke="#DFDFDF" d="M39.5 39.5h160v160h-160z"/><path d="M49.5 39.5v160m10-160v160m10-160v160m10-160v160m10-160v160m10-160v160m10-160v160m10-160v160m10-160v160m10-160v160m10-160v160m10-160v160m10-160v160m10-160v160m10-160v160m10-150h-160m160 10h-160m160 10h-160m160 10h-160m160 10h-160m160 10h-160m160 10h-160m160 10h-160m160 10h-160m160 10h-160m160 10h-160m160 10h-160m160 10h-160m160 10h-160m160 10h-160" stroke="#DFDFDF" stroke-linecap="square"/><path fill-rule="evenodd" clip-rule="evenodd" d="M211 39c5.523 0 10-4.477 10-10s-4.477-10-10-10-10 4.477-10 10 4.477 10 10 10Z" fill="#17AA55"/><path d="m207 29.069 2.981 2.98 6.05-6.049" stroke="#fff" stroke-width="2" stroke-linecap="round"/><path d="M54 63.5h-.5v81h131v-81H54ZM89.5 159v-.5H49a9.5 9.5 0 0 1-9.5-9.5V59a9.5 9.5 0 0 1 9.5-9.5h140a9.5 9.5 0 0 1 9.5 9.5v90a9.5 9.5 0 0 1-9.5 9.5h-40.5v16h13a7 7 0 1 1 0 14h-85a7 7 0 1 1 0-14h13V159Zm14.5-.5h-.5v16h31v-16H104Z" fill="#6E49CB" fill-opacity=".3" stroke="#6E49CB"/></svg>
